X: 21452
T: the Bonny Widow of Wigtown
%R: reel
B: James Oswald "The Caledonian Pocket Companion" v.2 p.145 #2
Z: 2018 John Chambers <jc:trillian.mit.edu>
M: C|
L: 1/8
K: D
|:"_Moderately Lively"\
(dc)(de) f2(ed) | (dc)(BA) (cd)e2 |\
(dc)(de) f2d'2 | (de)(fg) a4 |\
(dc)(de) f2(ed) | B2(cd) (ce)(dc) |\
(dc)(BA) (Bc) d2 | A2d2 d4 :|
|:\
d2 (f/g/)a Tf3e | dagf Tf2e2 |\
d2af d2A2 | (de)(fg) a4 |\
g3a bgaf | gefd Tc2BA |\
a3A (Bc)d2 | A2d2 d4 :|
